X: 16909
T: Haunted House, The
R: jig
M: 6/8
K: Gmajor
|:D|G3 AGA|BGE D3|GB/c/d egd|egd edB|
G3 AGA|BGE D3|GB/c/d ege|dBA G2:|
|:D|GB/c/d egd|egd edB|GB/c/d e3|ded A2D|
[1 GB/c/d egd|egd edB|GB/c/d e3|dBA G2:|
[2 G3 AGA|BGE D3|GB/c/d ege|dBA G2||

